markets/ALGO.svg

<svg width="42" height="42" viewBox="0 0 42 42" fill="none" xmlns="http://www.w3.org/2000/svg">
<circle cx="21" cy="21" r="21" fill="black"/>
<g clip-path="url(#clip0_7698_9628)">
<path d="M13.1628 33L16.646 26.9894L20.1292 21L23.5911 14.9894L24.1646 14.037L24.4195 14.9894L25.4814 18.9471L24.292 21L20.8088 26.9894L17.3469 33H21.5097L24.9929 26.9894L26.7982 23.8783L27.6478 26.9894L29.2619 33H33L31.3858 26.9894L29.7717 21L29.3469 19.455L31.9381 14.9894H28.1575L28.0301 14.545L26.7133 9.63492L26.5434 9H22.9115L22.8265 9.12698L19.4283 14.9894L15.9451 21L12.4832 26.9894L9 33H13.1628Z" fill="white"/>
</g>
<defs>
<clipPath id="clip0_7698_9628">
<rect width="24" height="24" fill="white" transform="translate(9 9)"/>
</clipPath>
</defs>
</svg>

<svg width="42" height="42" viewBox="0 0 42 42" fill="none" xmlns="http://www.w3.org/2000/svg"><circle cx="21" cy="21" r="21" fill="#000"/><g clip-path="url(#clip0_7698_9628)"><path d="M13.163 33l3.483-6.01L20.129 21l3.462-6.01.574-.953.255.952 1.061 3.958L24.292 21l-3.483 5.99L17.347 33h4.163l3.483-6.01 1.805-3.112.85 3.111L29.262 33H33l-1.614-6.01L29.772 21l-.425-1.545 2.591-4.466h-3.78l-.128-.444-1.317-4.91-.17-.635h-3.631l-.085.127-3.399 5.862L15.945 21l-3.462 5.99L9 33h4.163z" fill="#fff"/></g><defs><clipPath id="clip0_7698_9628"><path fill="#fff" transform="translate(9 9)" d="M0 0h24v24H0z"/></clipPath></defs></svg>
